X:23
T:Waterloo Dance,The,aka. RDO.23
M:2/4
L:1/16
Q:1/4=100
C:untitled
S:Robert D. Owen MS,Indiana,1826.
R:.Galop
O:Indiana,USA
A:New Harmony
N:No title in MS.
Z:vmp.Chris Partington
K:D
AG|F2dB A2fe|d2d2d2 cd|e2e2 dcBc|defd A2AG|!
F2dB A2fe|d2d2d2 cd|e2e2 dcBc|d2fe d2||!
cd|e2ec a2af|e2ec A2A2|^GABc dBed|d4 c2 cd|!
e2ec a2af|e2ec A2A2|^GABc dBAG|” cr”A6||!
fg|a6f2|ba3g2f2|e2e2 edef|d2e2f2g2|!
a6f2|ba3g2f2|e2e2 edef|d2f2d2|]

